illustrations/assets/Settings/il_axis_settings_dark.svg

<svg xmlns="http://www.w3.org/2000/svg" width="231" height="169" fill="none" viewBox="0 0 231 169">
  <path fill="#242424" d="M114.668 135.883c30.727 0 55.636-25.065 55.636-55.9851 0-30.9198-24.909-55.9853-55.636-55.9853-30.7264 0-55.6353 25.0655-55.6353 55.9853 0 30.9201 24.9089 55.9851 55.6353 55.9851Z"/>
  <path fill="#2A2E37" d="M134.525 19.7614c.502-.4618.537-1.246.078-1.7514-.459-.5054-1.238-.5407-1.74-.0788-.502.4618-.537 1.246-.078 1.7514.459.5054 1.238.5407 1.74.0788Z"/>
  <g filter="url(#filter0_d_3840_762)">
    <path fill="#3A3A3A" fill-rule="evenodd" d="M108.93 135.318c1.716.177 3.137-1.299 4.36-2.516.827-.822 1.654-1.644 2.481-2.741 1.961-2.194 4.141-1.569 6.733-.825.321.092.649.186.984.277 3.872.906 5.109-2.307 6.978-7.164.392-1.02.812-2.111 1.29-3.252 1.674-3.33-.802-4.802-3.467-6.387-.406-.242-.817-.486-1.218-.74-2.351-1.403-2.296-3.603-2.229-6.262.012-.458.024-.929.024-1.413-.258-2.82 1.836-4.082 3.856-5.2988 2.298-1.3848 4.501-2.712 3.034-6.2135-.359-.8575-.69-1.6824-1.005-2.4662-2.099-5.2294-3.464-8.6293-7.539-7.6758-.36.0978-.713.1994-1.058.2989-2.559.7376-4.716 1.3592-6.659-.573-.539-.6028-1.094-1.1239-1.618-1.615-1.618-1.5188-2.933-2.7522-2.516-5.2377 1.713-7.3017 1.253-7.4716-6.397-10.2965-.965-.3565-2.045-.7553-3.25-1.216-3.5184-1.3124-4.7753.866-6.0938 3.1513-1.1601 2.0105-2.3679 4.1038-5.2057 3.9755-.6451 0-1.2691.0313-1.8681.0613-2.4724.1239-4.5179.2264-5.849-1.98-3.9353-6.3599-4.3587-6.1712-12.0431-2.7453-.9266.4131-1.9588.8733-3.1155 1.3747-3.7863 1.6139-2.7956 4.8114-1.7155 8.2975l.0619.1998c.6542 2.6028-.7623 4.0042-2.4746 5.6981-.4516.4467-.9238.9139-1.384 1.4287-1.1594 1.3178-2.6302 2.8287-2.3706 4.5647 3.748 25.0633 24.0067 44.6843 49.274 47.2903ZM83.2486 121.29c7.9927 3.015 17.0874-.822 20.1194-8.772 3.032-7.949-.827-16.9942-8.8194-20.0094-7.9927-3.0152-17.0878.8223-20.1195 8.7714-3.0317 7.949.8268 16.995 8.8195 20.01Z" clip-rule="evenodd"/>
  </g>
  <g filter="url(#filter1_d_3840_762)">
    <path fill="#3A3A3A" d="M153.107 61.3929c-.216-3.2752.216-5.4586-1.948-5.677-1.514-.2183-2.596 0-3.246-1.31-.649-1.3101-1.515-2.4018-.649-3.4936 2.164-3.2752 1.515-3.0568-2.164-6.5503-2.38-2.1835-3.462 2.4018-5.843 1.31-1.298-.655-2.597-.655-3.029-2.1834-.866-3.7119-.866-3.2752-6.06-3.0568-1.947 0-1.947 1.7467-1.947 3.4935-.217 1.5284-1.299 1.7467-2.813 2.4018-2.381 1.31-3.896-3.0569-6.06-.6551-.948.9573-1.731 1.9145-2.493 3.0189-.216.3132-.414.6515-.462 1.0289-.163 1.2746 1.044 1.7795 1.815 3.0575.039.0649.058.0568.058.1325 0 .0676.018.2169.041.2805.146.4052-.041.8104-.041 1.2156 0 .5965-.318 1.1621-.514 1.7254-.236.6754-.497 1.1739-1.433 1.3314-3.679.655-3.246.8734-3.03 6.1137.216 3.2751 4.112.8733 5.194 3.2751.352.7108.991 1.7108.983 2.5293-.003.3624-.148.7132-.317 1.0333-.237.4467-.594.8531-.846 1.2943-.217.3772-.392.7865-.501 1.2073-.415 1.6019 1.323 2.6391 3.061 4.1981 2.381 2.1834 3.463-2.4018 5.843-1.3101 2.813 1.0917 2.597.4367 3.246 3.7119.433 2.1834 3.03 1.5284 5.843 1.31 3.246-.2183.865-4.1485 3.246-5.2403.433-.2183 1.082-.4366 1.515-.655 1.298-.655 2.164.2184 3.462.8734 1.948 1.3101 3.03-.655 5.194-3.2752 1.298-1.5284 0-2.6201-1.082-3.9302-.866-1.0917-.217-2.1835.216-3.7119.866-2.1834 4.977-.2183 4.761-3.4935Zm-14.932 4.1486c-2.597 2.8384-6.925 3.2751-9.954.655-2.813-2.6201-3.246-6.9871-.649-10.0439 2.596-2.8385 6.924-3.2752 9.954-.655 2.813 2.6201 3.246 6.987.649 10.0439Z"/>
  </g>
  <path fill="#5C5C5C" d="M47.1554 78.8127c-2.1132 1.0419-2.9919 3.6058-1.9626 5.7267 1.0293 2.1208 3.5767 2.9955 5.6899 1.9536 2.1132-1.0419 2.9919-3.6058 1.9626-5.7267-1.0293-2.1208-3.5767-2.9955-5.6899-1.9536ZM129.875 141.019c-1.546.048-2.765 1.346-2.723 2.899.042 1.554 1.329 2.775 2.875 2.728 1.546-.047 2.765-1.345 2.723-2.899-.042-1.554-1.329-2.775-2.875-2.728ZM121.426 148.116c-1.051.032-1.88.914-1.852 1.971.029 1.057.904 1.887 1.955 1.855 1.051-.032 1.88-.915 1.852-1.972-.029-1.056-.904-1.887-1.955-1.854ZM41.4943 96.9856c-.8897.4387-1.2597 1.5182-.8263 2.4112.4334.8932 1.506 1.2612 2.3957.8222.8898-.4383 1.2598-1.5179.8264-2.4108-.4334-.893-1.506-1.2613-2.3958-.8226ZM77.434 134.984c-.612.302-.8664 1.044-.5683 1.658.298.615 1.0358.868 1.6478.566.612-.302.8664-1.044.5684-1.658-.2981-.614-1.0359-.868-1.6479-.566Z"/>
  <path fill="url(#paint0_linear_3840_762)" d="m121.864 21.5025-12.37 13.1883c-3.841 4.0432-9.9781 4.5154-13.8064.9742-3.8282-3.5412-3.8891-9.6057-.0479-13.6489L108.009 8.8278c3.841-4.0432 9.979-4.5154 13.807-.9741 3.867 3.4337 3.889 9.6056.048 13.6488Z"/>
  <path fill="#323232" d="M119.186 19.9721c2.351-2.5663 2.156-6.6154-.436-9.044-2.592-2.4285-6.599-2.3168-8.95.2495-2.351 2.5663-2.156 6.6155.436 9.044 2.592 2.4286 6.599 2.3169 8.95-.2495Z"/>
  <g filter="url(#filter2_d_3840_762)">
    <path fill="#4D4D4D" d="m79.2747 39.692-3.6268 3.4099c-.4315.3961-1.1057.5333-1.6856.343l-4.3099-1.3424c-.5798-.1903-1.0654-.7081-1.1302-1.2909l-1.0308-4.3527c-.1485-.5863.0402-1.2413.4717-1.6374l3.6268-3.4099c.2589-.2376.275-.7341.0323-.993-.081-.0863-.2455-.1761-.4127-.1832-3.2499-.469-6.4645.5552-8.7943 2.6941-2.9365 2.7761-4.0767 6.9541-2.9461 10.8139L35.0463 66.2446c-2.0736 1.984-2.2619 5.2079-.2389 7.3651 1.9421 2.071 5.2027 2.2089 7.19.3042L66.6791 51.175c3.6464 1.1486 7.6107.239 10.3747-2.3787 2.4161-2.218 3.6077-5.3995 3.3753-8.5583.0134-.4137-.3966-.6797-.731-.6938-.1672-.0071-.2535.0721-.4234.1478ZM37.7466 70.7508c-.7283-.7766-.688-2.0179.0886-2.7309.7766-.7129 1.9471-.6634 2.6754.1132.7283.7766.688 2.0179-.0886 2.7309-.7766.713-1.9471.6634-2.6754-.1132-.0027.0828-.0027.0828 0 0Z"/>
  </g>
  <path stroke="#2A2E37" stroke-miterlimit="10" d="M59.3359 48.3698 41.3027 64.7253M62.2232 51.3937 44.1069 67.7444" opacity=".4"/>
  <path fill="#4D4D4D" d="M180.657 42.5938c-.379-.2417-.948-.231-1.485-.0135-.933.619-2.116.3303-2.699-.5089-.284-.3679-.362-.8848-.204-1.344.159-.4592-.03-.9533-.519-1.1722l-1.01-.6445-1.614 2.1455-19.183-12.2456c-.253-.1612-.41-.4485-.442-.6553l-.078-.5169c-.062-.4135-.33-.6781-.693-.8164l-4.956-1.8557-2.564 3.4076 3.627 3.6227c.268.2645.631.4028 1.073.3115l.553-.1141c.332-.0685.569-.0107.821.1504l19.184 12.2457-1.614 2.1455 1.009.6445c.379.2417.948.231 1.374.0363.933-.6189 2.117-.3302 2.7.5089.284.3679.362.8849.203 1.3441-.159.4591.141.9304.519 1.1721l13.757 8.7815c2.146 1.3695 5.352.7077 6.966-1.4378 0 0 .095-.1263.08-.2296 1.488-2.2261.955-4.9947-1.191-6.3643l-13.614-8.5975Z"/>
  <path stroke="#2A2E37" stroke-miterlimit="10" d="m177.527 48.9438 10.35 6.8697M179.294 46.4196l10.349 6.8695" opacity=".4"/>
  <path fill="url(#paint1_linear_3840_762)" d="m168.923 80.0637-24.259 15.0524c-1.319.8181-1.719 2.5273-.901 3.8457l15.052 24.2592c.819 1.319 2.528 1.719 3.846.901l24.26-15.052a2.782 2.782 0 0 0 .9-3.846l-15.052-24.2596c-.818-1.3185-2.527-1.7188-3.846-.9007Z"/>
  <path fill="#323232" d="m170.692 89.8308-7.317 4.5402c-1.295-1.2048-3.152-1.6961-4.848-1.1918-2.61.7975-4.058 3.6134-3.195 6.182l-2.307 1.4318c-.593.368-.793 1.223-.425 1.816.409.659 1.263.859 1.857.491l2.307-1.431c1.214 1.073 2.882 1.407 4.38 1.025 2.625-.624 4.221-3.3494 3.597-5.9748l7.383-4.5811c.593-.3682.793-1.2228.425-1.8161-.343-.7001-1.197-.9003-1.857-.4912Zm-8.488 8.0973c.032.3454-.044.6659-.225.9614-.091.1477-.116.2545-.248.3363-.157.1887-.248.3364-.446.4591-1.014.7201-2.361.4611-3.082-.5528l-.082-.1318c-.654-1.0548-.288-2.3776.701-2.9912.989-.6135 2.271-.3133 2.95.6347.246.3955.425.8319.432 1.2843Zm15.728 3.5709-2.241 1.391c-1.296-1.205-3.153-1.696-4.848-1.192-2.61.797-3.992 3.572-3.195 6.182l-7.383 4.581a1.391 1.391 0 0 0-.45 1.923c.409.659 1.263.859 1.922.45l7.384-4.581c1.213 1.073 2.816 1.448 4.38 1.026 2.625-.625 4.221-3.35 3.596-5.975l2.308-1.432c.659-.409.859-1.263.45-1.923a1.391 1.391 0 0 0-1.923-.45Zm-3.787 3.902c.327.528.309 1.087.184 1.621-.025.107-.116.254-.141.361-.091.148-.116.255-.207.402-.091.148-.157.189-.248.337l-.198.123c-.066.04-.132.081-.198.122-.131.082-.263.164-.436.18-.066.041-.132.082-.239.057-.848.252-1.891-.105-2.423-.962-.49-.791-.438-1.737.058-2.41.157-.188.248-.336.445-.459.066-.041.132-.082.198-.122 1.055-.655 2.378-.289 2.991.7.239-.057.28.009.214.05Z"/>
  <defs>
    <filter id="filter0_d_3840_762" width="116.675" height="115.727" x="37.626" y="52.6051" color-interpolation-filters="sRGB" filterUnits="userSpaceOnUse">
      <feFlood flood-opacity="0" result="BackgroundImageFix"/>
      <feColorMatrix in="SourceAlpha" result="hardAlpha" values="0 0 0 0 0 0 0 0 0 0 0 0 0 0 0 0 0 0 127 0"/>
      <feOffset dy="11"/>
      <feGaussianBlur stdDeviation="11"/>
      <feColorMatrix values="0 0 0 0 0 0 0 0 0 0 0 0 0 0 0 0 0 0 0.27 0"/>
      <feBlend in2="BackgroundImageFix" result="effect1_dropShadow_3840_762"/>
      <feBlend in="SourceGraphic" in2="effect1_dropShadow_3840_762" result="shape"/>
    </filter>
    <filter id="filter1_d_3840_762" width="83.9639" height="84.7964" x="91.1514" y="29.2928" color-interpolation-filters="sRGB" filterUnits="userSpaceOnUse">
      <feFlood flood-opacity="0" result="BackgroundImageFix"/>
      <feColorMatrix in="SourceAlpha" result="hardAlpha" values="0 0 0 0 0 0 0 0 0 0 0 0 0 0 0 0 0 0 127 0"/>
      <feOffset dy="11"/>
      <feGaussianBlur stdDeviation="11"/>
      <feColorMatrix values="0 0 0 0 0 0 0 0 0 0 0 0 0 0 0 0 0 0 0.27 0"/>
      <feBlend in2="BackgroundImageFix" result="effect1_dropShadow_3840_762"/>
      <feBlend in="SourceGraphic" in2="effect1_dropShadow_3840_762" result="shape"/>
    </filter>
    <filter id="filter2_d_3840_762" width="91.0713" height="89.1339" x="11.3865" y="19.1234" color-interpolation-filters="sRGB" filterUnits="userSpaceOnUse">
      <feFlood flood-opacity="0" result="BackgroundImageFix"/>
      <feColorMatrix in="SourceAlpha" result="hardAlpha" values="0 0 0 0 0 0 0 0 0 0 0 0 0 0 0 0 0 0 127 0"/>
      <feOffset dy="11"/>
      <feGaussianBlur stdDeviation="11"/>
      <feColorMatrix values="0 0 0 0 0 0 0 0 0 0 0 0 0 0 0 0 0 0 0.27 0"/>
      <feBlend in2="BackgroundImageFix" result="effect1_dropShadow_3840_762"/>
      <feBlend in="SourceGraphic" in2="effect1_dropShadow_3840_762" result="shape"/>
    </filter>
    <linearGradient id="paint0_linear_3840_762" x1="103.07" x2="115.039" y1="10.1565" y2="32.6954" gradientUnits="userSpaceOnUse">
      <stop stop-color="#5C5C5C"/>
      <stop offset=".9964" stop-color="#4D4D4D"/>
    </linearGradient>
    <linearGradient id="paint1_linear_3840_762" x1="156.368" x2="174.975" y1="86.9248" y2="116.914" gradientUnits="userSpaceOnUse">
      <stop stop-color="#5C5C5C"/>
      <stop offset=".9964" stop-color="#4D4D4D"/>
    </linearGradient>
  </defs>
</svg>

<svg width="231" height="169" viewBox="0 0 231 169" fill="none" xmlns="http://www.w3.org/2000/svg">
<path d="M114.668 135.883C145.395 135.883 170.304 110.818 170.304 79.8979C170.304 48.9781 145.395 23.9126 114.668 23.9126C83.9416 23.9126 59.0327 48.9781 59.0327 79.8979C59.0327 110.818 83.9416 135.883 114.668 135.883Z" fill="#242424"/>
<path d="M134.525 19.7613C135.027 19.2994 135.062 18.5153 134.603 18.0099C134.144 17.5045 133.365 17.4692 132.863 17.9311C132.361 18.3929 132.326 19.177 132.785 19.6825C133.244 20.1879 134.023 20.2232 134.525 19.7613Z" fill="#2A2E37"/>
<g filter="url(#filter0_d_3840_762)">
<path fill-rule="evenodd" clip-rule="evenodd" d="M108.93 135.317C110.646 135.494 112.067 134.018 113.29 132.802C114.117 131.98 114.944 131.157 115.771 130.061C117.732 127.866 119.912 128.492 122.504 129.236C122.825 129.328 123.153 129.422 123.488 129.513C127.36 130.419 128.597 127.205 130.466 122.348C130.858 121.329 131.278 120.238 131.756 119.097C133.43 115.767 130.954 114.294 128.289 112.71C127.883 112.468 127.472 112.224 127.071 111.97C124.72 110.567 124.775 108.366 124.842 105.708C124.854 105.25 124.866 104.778 124.866 104.295C124.608 101.474 126.702 100.213 128.722 98.9959C131.02 97.611 133.223 96.2839 131.756 92.7823C131.397 91.9248 131.066 91.0999 130.751 90.3161C128.652 85.0868 127.287 81.6868 123.212 82.6404C122.852 82.7381 122.499 82.8397 122.154 82.9392C119.595 83.6768 117.438 84.2985 115.495 82.3662C114.956 81.7634 114.401 81.2424 113.877 80.7512C112.259 79.2325 110.944 77.999 111.361 75.5136C113.074 68.2118 112.614 68.0419 104.964 65.217C103.999 64.8606 102.919 64.4618 101.714 64.001C98.1956 62.6887 96.9387 64.8671 95.6202 67.1523C94.4601 69.1629 93.2523 71.2561 90.4145 71.1278C89.7694 71.1278 89.1454 71.1591 88.5464 71.1891C86.074 71.3131 84.0285 71.4156 82.6974 69.2091C78.7621 62.8492 78.3387 63.038 70.6543 66.4638C69.7277 66.877 68.6955 67.3371 67.5388 67.8386C63.7525 69.4524 64.7432 72.6499 65.8233 76.136C65.8439 76.2026 65.8645 76.2692 65.8852 76.3359C66.5394 78.9387 65.1229 80.34 63.4106 82.0339C62.959 82.4807 62.4868 82.9478 62.0266 83.4627C60.8672 84.7805 59.3964 86.2914 59.656 88.0273C63.404 113.09 83.6627 132.712 108.93 135.317ZM83.2486 121.29C91.2413 124.305 100.336 120.467 103.368 112.518C106.4 104.569 102.541 95.5234 94.5486 92.5082C86.5559 89.493 77.4608 93.3305 74.4291 101.28C71.3974 109.229 75.2559 118.274 83.2486 121.29Z" fill="#3A3A3A"/>
</g>
<g filter="url(#filter1_d_3840_762)">
<path d="M153.107 61.3925C152.891 58.1174 153.323 55.9339 151.159 55.7156C149.645 55.4972 148.563 55.7156 147.913 54.4055C147.264 53.0954 146.398 52.0037 147.264 50.912C149.428 47.6368 148.779 47.8551 145.1 44.3616C142.72 42.1781 141.638 46.7634 139.257 45.6717C137.959 45.0166 136.66 45.0166 136.228 43.4882C135.362 39.7763 135.362 40.213 130.168 40.4314C128.221 40.4314 128.221 42.1781 128.221 43.9249C128.004 45.4533 126.922 45.6717 125.408 46.3267C123.027 47.6368 121.512 43.2699 119.348 45.6717C118.4 46.6289 117.617 47.5861 116.855 48.6906C116.639 49.0038 116.441 49.342 116.393 49.7195C116.23 50.9941 117.437 51.499 118.208 52.777C118.247 52.8418 118.266 52.8337 118.266 52.9095C118.266 52.9771 118.284 53.1264 118.307 53.1899C118.453 53.5951 118.266 54.0003 118.266 54.4055C118.266 55.002 117.948 55.5676 117.752 56.131C117.516 56.8064 117.255 57.3048 116.319 57.4623C112.64 58.1174 113.073 58.3357 113.289 63.576C113.505 66.8512 117.401 64.4494 118.483 66.8512C118.835 67.562 119.474 68.562 119.466 69.3805C119.463 69.7428 119.318 70.0936 119.149 70.4138C118.912 70.8604 118.555 71.2668 118.303 71.708C118.086 72.0852 117.911 72.4945 117.802 72.9153C117.387 74.5173 119.125 75.5545 120.863 77.1134C123.244 79.2968 124.326 74.7116 126.706 75.8033C129.519 76.8951 129.303 76.24 129.952 79.5152C130.385 81.6987 132.982 81.0436 135.795 80.8253C139.041 80.6069 136.66 76.6767 139.041 75.585C139.474 75.3666 140.123 75.1483 140.556 74.9299C141.854 74.2749 142.72 75.1483 144.018 75.8033C145.966 77.1134 147.048 75.1483 149.212 72.5281C150.51 70.9997 149.212 69.908 148.13 68.5979C147.264 67.5062 147.913 66.4145 148.346 64.8861C149.212 62.7026 153.323 64.6677 153.107 61.3925ZM138.175 65.5411C135.578 68.3796 131.25 68.8163 128.221 66.1961C125.408 63.576 124.975 59.2091 127.572 56.1522C130.168 53.3138 134.496 52.8771 137.526 55.4972C140.339 58.1174 140.772 62.4843 138.175 65.5411Z" fill="#3A3A3A"/>
</g>
<path d="M47.1554 78.8127C45.0422 79.8546 44.1635 82.4185 45.1928 84.5394C46.2221 86.6602 48.7695 87.5349 50.8827 86.493C52.9959 85.4511 53.8746 82.8872 52.8453 80.7663C51.816 78.6455 49.2686 77.7708 47.1554 78.8127Z" fill="#5C5C5C"/>
<path d="M129.875 141.019C128.329 141.067 127.11 142.365 127.152 143.918C127.194 145.472 128.481 146.693 130.027 146.646C131.573 146.599 132.792 145.301 132.75 143.747C132.708 142.193 131.421 140.972 129.875 141.019Z" fill="#5C5C5C"/>
<path d="M121.426 148.115C120.375 148.148 119.546 149.03 119.574 150.087C119.603 151.143 120.478 151.974 121.529 151.942C122.58 151.909 123.409 151.027 123.381 149.97C123.352 148.914 122.477 148.083 121.426 148.115Z" fill="#5C5C5C"/>
<path d="M41.4943 96.9853C40.6046 97.424 40.2346 98.5036 40.668 99.3966C41.1014 100.29 42.174 100.658 43.0637 100.219C43.9535 99.7804 44.3235 98.7009 43.8901 97.8079C43.4567 96.9149 42.3841 96.5466 41.4943 96.9853Z" fill="#5C5C5C"/>
<path d="M77.434 134.984C76.822 135.285 76.5676 136.028 76.8657 136.642C77.1637 137.256 77.9015 137.51 78.5135 137.208C79.1255 136.906 79.3799 136.164 79.0819 135.55C78.7838 134.935 78.046 134.682 77.434 134.984Z" fill="#5C5C5C"/>
<path d="M121.864 21.5026L109.494 34.6909C105.653 38.7341 99.5159 39.2063 95.6876 35.6651C91.8594 32.1239 91.7985 26.0594 95.6397 22.0162L108.009 8.82791C111.85 4.78475 117.988 4.31256 121.816 7.85377C125.683 11.2875 125.705 17.4594 121.864 21.5026Z" fill="url(#paint0_linear_3840_762)"/>
<path d="M119.186 19.9723C121.537 17.4059 121.342 13.3568 118.75 10.9282C116.158 8.4997 112.151 8.61139 109.8 11.1777C107.449 13.744 107.644 17.7932 110.236 20.2217C112.828 22.6503 116.835 22.5386 119.186 19.9723Z" fill="#323232"/>
<g filter="url(#filter2_d_3840_762)">
<path d="M79.2747 39.6919L75.6479 43.1018C75.2164 43.4978 74.5422 43.635 73.9623 43.4448L69.6524 42.1023C69.0726 41.9121 68.587 41.3943 68.5222 40.8115L67.4914 36.4588C67.3429 35.8724 67.5316 35.2175 67.9631 34.8214L71.5899 31.4115C71.8488 31.1739 71.8649 30.6773 71.6222 30.4185C71.5412 30.3322 71.3767 30.2423 71.2095 30.2353C67.9596 29.7663 64.745 30.7905 62.4152 32.9294C59.4787 35.7055 58.3385 39.8835 59.4691 43.7432L35.0463 66.2445C32.9727 68.2285 32.7844 71.4523 34.8074 73.6096C36.7495 75.6806 40.0101 75.8185 41.9974 73.9138L66.6791 51.1748C70.3255 52.3235 74.2898 51.4139 77.0538 48.7962C79.4699 46.5781 80.6615 43.3967 80.4291 40.2379C80.4425 39.8241 80.0325 39.5582 79.6981 39.544C79.5309 39.537 79.4446 39.6162 79.2747 39.6919ZM37.7466 70.7507C37.0183 69.9741 37.0586 68.7328 37.8352 68.0198C38.6118 67.3069 39.7823 67.3564 40.5106 68.133C41.2389 68.9096 41.1986 70.1509 40.422 70.8639C39.6454 71.5768 38.4749 71.5273 37.7466 70.7507C37.7439 70.8335 37.7439 70.8335 37.7466 70.7507Z" fill="#4D4D4D"/>
</g>
<path opacity="0.4" d="M59.3359 48.3698L41.3027 64.7253" stroke="#2A2E37" stroke-miterlimit="10"/>
<path opacity="0.4" d="M62.2232 51.3934L44.1069 67.7441" stroke="#2A2E37" stroke-miterlimit="10"/>
<path d="M180.657 42.5938C180.278 42.3521 179.709 42.3628 179.172 42.5803C178.239 43.1993 177.056 42.9106 176.473 42.0714C176.189 41.7035 176.111 41.1866 176.269 40.7274C176.428 40.2682 176.239 39.7741 175.75 39.5552L174.74 38.9107L173.126 41.0562L153.943 28.8106C153.69 28.6494 153.533 28.3621 153.501 28.1553L153.423 27.6384C153.361 27.2249 153.093 26.9603 152.73 26.822L147.774 24.9663L145.21 28.3739L148.837 31.9966C149.105 32.2611 149.468 32.3994 149.91 32.3081L150.463 32.194C150.795 32.1255 151.032 32.1833 151.284 32.3444L170.468 44.5901L168.854 46.7356L169.863 47.3801C170.242 47.6218 170.811 47.6111 171.237 47.4164C172.17 46.7975 173.354 47.0862 173.937 47.9253C174.221 48.2932 174.299 48.8102 174.14 49.2694C173.981 49.7285 174.281 50.1998 174.659 50.4415L188.416 59.223C190.562 60.5925 193.768 59.9307 195.382 57.7852C195.382 57.7852 195.477 57.6589 195.462 57.5556C196.95 55.3295 196.417 52.5609 194.271 51.1913L180.657 42.5938Z" fill="#4D4D4D"/>
<path opacity="0.4" d="M177.527 48.9438L187.877 55.8135" stroke="#2A2E37" stroke-miterlimit="10"/>
<path opacity="0.4" d="M179.294 46.4194L189.643 53.289" stroke="#2A2E37" stroke-miterlimit="10"/>
<path d="M168.923 80.0637L144.664 95.1161C143.345 95.9342 142.945 97.6434 143.763 98.9618L158.815 123.221C159.634 124.54 161.343 124.94 162.661 124.122L186.921 109.07C188.239 108.252 188.639 106.542 187.821 105.224L172.769 80.9644C171.951 79.6459 170.242 79.2456 168.923 80.0637Z" fill="url(#paint1_linear_3840_762)"/>
<path d="M170.692 89.8308L163.375 94.371C162.08 93.1662 160.223 92.6749 158.527 93.1792C155.917 93.9767 154.469 96.7926 155.332 99.3612L153.025 100.793C152.432 101.161 152.232 102.016 152.6 102.609C153.009 103.268 153.863 103.468 154.457 103.1L156.764 101.669C157.978 102.742 159.646 103.076 161.144 102.694C163.769 102.07 165.365 99.3446 164.741 96.7192L172.124 92.1381C172.717 91.7699 172.917 90.9153 172.549 90.322C172.206 89.6219 171.352 89.4217 170.692 89.8308ZM162.204 97.9281C162.236 98.2735 162.16 98.594 161.979 98.8895C161.888 99.0372 161.863 99.144 161.731 99.2258C161.574 99.4145 161.483 99.5622 161.285 99.6849C160.271 100.405 158.924 100.146 158.203 99.1321C158.162 99.0662 158.162 99.0662 158.121 99.0003C157.467 97.9455 157.833 96.6227 158.822 96.0091C159.811 95.3956 161.093 95.6958 161.772 96.6438C162.018 97.0393 162.197 97.4757 162.204 97.9281ZM177.932 101.499L175.691 102.89C174.395 101.685 172.538 101.194 170.843 101.698C168.233 102.495 166.851 105.27 167.648 107.88L160.265 112.461C159.606 112.87 159.406 113.725 159.815 114.384C160.224 115.043 161.078 115.243 161.737 114.834L169.121 110.253C170.334 111.326 171.937 111.701 173.501 111.279C176.126 110.654 177.722 107.929 177.097 105.304L179.405 103.872C180.064 103.463 180.264 102.609 179.855 101.949C179.446 101.29 178.591 101.09 177.932 101.499ZM174.145 105.401C174.472 105.929 174.454 106.488 174.329 107.022C174.304 107.129 174.213 107.276 174.188 107.383C174.097 107.531 174.072 107.638 173.981 107.785C173.89 107.933 173.824 107.974 173.733 108.122C173.667 108.163 173.601 108.204 173.535 108.245C173.469 108.285 173.403 108.326 173.337 108.367C173.206 108.449 173.074 108.531 172.901 108.547C172.835 108.588 172.769 108.629 172.662 108.604C171.814 108.856 170.771 108.499 170.239 107.642C169.749 106.851 169.801 105.905 170.297 105.232C170.454 105.044 170.545 104.896 170.742 104.773C170.808 104.732 170.874 104.691 170.94 104.651C171.995 103.996 173.318 104.362 173.931 105.351C174.17 105.294 174.211 105.36 174.145 105.401Z" fill="#323232"/>
<defs>
<filter id="filter0_d_3840_762" x="37.626" y="52.6047" width="116.675" height="115.727" filterUnits="userSpaceOnUse" color-interpolation-filters="sRGB">
<feFlood flood-opacity="0" result="BackgroundImageFix"/>
<feColorMatrix in="SourceAlpha" type="matrix" values="0 0 0 0 0 0 0 0 0 0 0 0 0 0 0 0 0 0 127 0" result="hardAlpha"/>
<feOffset dy="11"/>
<feGaussianBlur stdDeviation="11"/>
<feColorMatrix type="matrix" values="0 0 0 0 0 0 0 0 0 0 0 0 0 0 0 0 0 0 0.27 0"/>
<feBlend mode="normal" in2="BackgroundImageFix" result="effect1_dropShadow_3840_762"/>
<feBlend mode="normal" in="SourceGraphic" in2="effect1_dropShadow_3840_762" result="shape"/>
</filter>
<filter id="filter1_d_3840_762" x="91.1514" y="29.2925" width="83.9639" height="84.7964" filterUnits="userSpaceOnUse" color-interpolation-filters="sRGB">
<feFlood flood-opacity="0" result="BackgroundImageFix"/>
<feColorMatrix in="SourceAlpha" type="matrix" values="0 0 0 0 0 0 0 0 0 0 0 0 0 0 0 0 0 0 127 0" result="hardAlpha"/>
<feOffset dy="11"/>
<feGaussianBlur stdDeviation="11"/>
<feColorMatrix type="matrix" values="0 0 0 0 0 0 0 0 0 0 0 0 0 0 0 0 0 0 0.27 0"/>
<feBlend mode="normal" in2="BackgroundImageFix" result="effect1_dropShadow_3840_762"/>
<feBlend mode="normal" in="SourceGraphic" in2="effect1_dropShadow_3840_762" result="shape"/>
</filter>
<filter id="filter2_d_3840_762" x="11.3865" y="19.1233" width="91.0713" height="89.1338" filterUnits="userSpaceOnUse" color-interpolation-filters="sRGB">
<feFlood flood-opacity="0" result="BackgroundImageFix"/>
<feColorMatrix in="SourceAlpha" type="matrix" values="0 0 0 0 0 0 0 0 0 0 0 0 0 0 0 0 0 0 127 0" result="hardAlpha"/>
<feOffset dy="11"/>
<feGaussianBlur stdDeviation="11"/>
<feColorMatrix type="matrix" values="0 0 0 0 0 0 0 0 0 0 0 0 0 0 0 0 0 0 0.27 0"/>
<feBlend mode="normal" in2="BackgroundImageFix" result="effect1_dropShadow_3840_762"/>
<feBlend mode="normal" in="SourceGraphic" in2="effect1_dropShadow_3840_762" result="shape"/>
</filter>
<linearGradient id="paint0_linear_3840_762" x1="103.07" y1="10.1566" x2="115.039" y2="32.6955" gradientUnits="userSpaceOnUse">
<stop stop-color="#5C5C5C"/>
<stop offset="0.9964" stop-color="#4D4D4D"/>
</linearGradient>
<linearGradient id="paint1_linear_3840_762" x1="156.368" y1="86.9248" x2="174.975" y2="116.914" gradientUnits="userSpaceOnUse">
<stop stop-color="#5C5C5C"/>
<stop offset="0.9964" stop-color="#4D4D4D"/>
</linearGradient>
</defs>
</svg>
